X:1
T:Over There
T:Over There
T:Andrew Grier, Jr.
T:Andrew Grier, Jr., 1918
T:Public Domain Courtesy of the Cyber Hymnal™
C:Andrew Grier, Jr.
Z:Public Domain
Z:Courtesy of the Cyber Hymnal™
%%score ( 1 2 ) ( 3 4 )
L:1/8
Q:1/4=95
M:4/4
K:C
V:1 treble 
V:2 treble 
V:3 bass 
V:4 bass 
V:1
 [EG]>[Ec] | [Ge]>[Ge] [Ge]>[Fd] [Ec]2 [Ec]>[Ge] | [Ad]>[Ac] [Ac]>[FA] [EG]2 | c>d | %4
w: 1.~When my|work on earth is done, I shall|go at set of sun,|O- ver|
w: 2.~Ma- ny|loved ones for me wait, Just be-|yond the pear- ly gate,|O- ver|
w: 3.~O no|sor- row, death and night, Can that|gol- den ci- ty blight,|O- ver|
 e6 [^Fd]>[FA] | [Gd]6 [CE]>[DF] | [EG]>[EG] [EG]>[FA] [EG]2 [EG]>G | %7
w: there, o- ver|there; To that|home of joy un- told, Where the|
w: there, o- ver|there; And they|with the an- gels sing, Prais- es|
w: there, o- ver|there; And for|aye I shall ab- ide, Safe with|
 [FA]>[FA] [FA]>[GB] !fermata![Ac]2 [Ac]>[_Ad] | e6 [Ec]>[Fd] | [Ec]6 ||"^Refrain" [CE]>[DF] | %11
w: streets are paved with gold, O- ver|there, o- ver|there.||
w: to the Sav- ior, King, O- ver|there, o- ver|there.|O- ver|
w: all the glor- i- fied, O- ver|there, o- ver|there.||
 [EG]6 [FA]>[GB] | [Ac]6 [Ac]>[_Ad] | [Ge]>[Ge] [Ec]>[Gc] [^Fd]2 [Ge]2 | [Gd]6 [CE]>[DF] | %15
w: ||||
w: there, o- ver|there, Lies a|won- drous ci- ty bright and|fair; And from|
w: ||||
 [EG]>[EG] [EG]>[FA] [EG]2 [EG]>G | [FA]>[FA] [FA]>[GB] !fermata![Ac]2 [Ac]>[_Ad] | e6 [Ec]>[Fd] | %18
w: |||
w: ev- ery sor- row free, I shall|spend e- ter- ni- ty, O- ver|there, o- ver|
w: |||
 [Ec]6 |] %19
w: |
w: there.|
w: |
V:2
 x2 | x8 | x6 | x2 | (G2 A2 G2) x2 | x8 | x15/2 G/ | x8 | (G2- E2 G2) x2 | x6 || x2 | x8 | x8 | %13
 x8 | x8 | x15/2 G/ | x8 | (G2- E2 G2) x2 | x6 |] %19
V:3
 [C,C]>[C,C] | [C,C]>[C,C] [C,C]>[C,G,] [C,G,]2 [C,G,]>[C,C] | [F,C]>[F,C] [F,C]>[F,C] [C,C]2 | %3
w: ~ ~|~ ~ ~ ~ ~ ~ ~|~ ~ ~ ~ ~|
 z2 | ([C,C]2 [C,C]2 [C,C]2) z2 | ([G,B,]2 [D,B,]2 [G,B,]2) [C,G,]>[C,G,] | %6
w: |~ * *|~ * * ~ ~|
 [C,C]>[C,C] [C,C]>[C,C] [C,C]2 [C,C]>[E,C] | [F,C]>[F,C] [F,C]>[F,C] !fermata![F,C]2 z2 | %8
w: ~ ~ ~ ~ ~ ~ ~|~ ~ ~ ~ ~|
 ([G,C]2 [A,C]2 [G,C]2) G,>G, | [C,G,]6 || z2 | [C,C]2 [C,C]2 [C,C]2 z2 | %12
w: ~ * * ~ ~|~||O- ver there,|
 [F,C]2 [F,C]2 [F,C]2 [F,C]>[F,C] | [C,C]>[C,C] [C,G,]>[E,C] [D,A,]2 [D,C]2 | %14
w: o- ver there, ~ ~|~ ~ ~ ~ ~ ~|
 [G,B,]6 [C,G,]>[C,G,] | [C,C]>[C,C] [C,C]>[C,C] [C,C]2 [C,C]>[E,C] | %16
w: ~ ~ ~|~ ~ ~ ~ ~ ~ ~|
 [F,C]>[F,C] [F,C]>[F,C] !fermata![F,C]2 z2 | [G,C]2 [A,C]2 [G,C]2 G,>G, | [C,G,]6 |] %19
w: ~ ~ ~ ~ ~|O- ver there, * *||
V:4
 x2 | x8 | x6 | x2 | x8 | x8 | x8 | x8 | x6 G,>G, | x6 || x2 | x8 | x8 | x8 | x8 | x8 | x8 | %17
 x6 G,>G, | x6 |] %19

